svg/furkot/nps/lookout.svg

<svg height="512" viewBox="0 0 512 512" width="512" xmlns="http://www.w3.org/2000/svg"><path d="m156.367 256.44c0 29.696-23.962 53.248-53.504 53.248-29.486 0-53.453-23.552-53.453-53.248s23.967-53.248 53.453-53.248c29.542 0 53.504 23.552 53.504 53.248zm34.969 16.18 271.258 20.018v-72.396l-271.258 20.02zm-30.208-84.583 110.695-151.387-62.618-36.21-75.98 171.366zm26.472 38.297 200.908-93.132-36.2-62.72-180.837 127.846zm-26.472 98.509 110.695 151.4-62.618 36.197-75.98-171.418zm26.472-38.297 200.908 93.132-36.2 62.67-180.836-127.798z"/></svg>

<svg xmlns="http://www.w3.org/2000/svg" version="1" width="512" height="512" viewBox="0 0 512 512"><path d="M156.367 256.44c0 29.696-23.962 53.248-53.504 53.248-29.486 0-53.453-23.552-53.453-53.248 0-29.696 23.967-53.248 53.453-53.248 29.542 0 53.504 23.552 53.504 53.248zM191.336 272.62l271.258 20.018v-72.396l-271.258 20.02zM161.128 188.037L271.823 36.65 209.205.44l-75.98 171.366zM187.6 226.334l200.908-93.132-36.2-62.72-180.837 127.846zM161.128 324.843l110.695 151.4-62.618 36.197-75.98-171.418zM187.6 286.546l200.908 93.132-36.2 62.67L171.472 314.55z"/></svg>
